X:23
T:score117
L:1/8
Q:1/4=96
M:4/4
I:linebreak $
K:Amin
 e (3.c.d.e | (3.f z.d (3.f.e.d (3.e z.c (3.e.d.c | B ze z (3.c z.e (3.c.d.e |$ %3
 (3f zd (3fed e za z | (!trill(!T!>!^g4 (3a) ze (3cde | (3f zd (3fed (3e zc (3edc |$ %6
 B ze z (3c zc (3edc | !>!B3 c !>!B3 c | !>!B4 z4 |] %9
